; generated by Slic3r 1.0.0 on 2016-02-28 at 13:22:16

; layer_height = 0.3
; perimeters = 3
; top_solid_layers = 4
; bottom_solid_layers = 3
; fill_density = 0.4
; perimeter_speed = 30
; infill_speed = 50
; travel_speed = 100
; nozzle_diameter = 0.5
; filament_diameter = 1.75
; extrusion_multiplier = 0.95
; perimeters extrusion width = 0.80mm
; infill extrusion width = 0.70mm
; solid infill extrusion width = 0.70mm
; top infill extrusion width = 0.70mm
; first layer extrusion width = 1.00mm

G21 ; set units to millimeters
M190 S110 ; wait for bed temperature to be reached
M104 S240 ; set temperature
T0
G28 ; home all axes
G1 Z5 F5000 ; lift nozzle
G1 X10 Y10
M109 S240 ; wait for temperature to be reached
G90 ; use absolute coordinates
G92 E0
M82 ; use absolute distances for extrusion
G1 F1800.000 E-2.00000
G1 Z0.520 F6000.000
G92 E0
G1 X100.160 Y115.110 F6000.000
G1 Z0.500 F6000.000
G1 E2.00000 F1800.000
G1 X101.560 Y114.080 E2.30641 F900
G1 X102.310 Y113.650 E2.45882
G1 X103.510 Y113.090 E2.69227
G1 X104.780 Y112.740 E2.92451
G1 X105.630 Y112.580 E3.07699
G1 X106.360 Y112.480 E3.20688
G1 X107.090 Y112.450 E3.33568
G1 X193.200 Y112.450 E18.51619
G1 X193.930 Y112.480 E18.64499
G1 X194.660 Y112.580 E18.77489
G1 X195.510 Y112.740 E18.92737
G1 X196.780 Y113.090 E19.15961
G1 X197.980 Y113.650 E19.39306
G1 X198.730 Y114.080 E19.54547
G1 X199.850 Y114.860 E19.78608
G1 X200.820 Y115.820 E20.02667
G1 X201.380 Y116.480 E20.17926
G1 X202.340 Y117.910 E20.48290
G1 X202.980 Y119.520 E20.78833
G1 X203.320 Y120.770 E21.01670
G1 X203.520 Y121.800 E21.20168
G1 X203.590 Y122.840 E21.38543
G1 X203.590 Y177.440 E31.01098
G1 X203.560 Y178.160 E31.13802
G1 X203.460 Y178.880 E31.26617
G1 X203.300 Y179.740 E31.42038
G1 X202.950 Y181.020 E31.65432
G1 X202.390 Y182.230 E31.88937
G1 X201.960 Y182.980 E32.04178
G1 X201.160 Y184.120 E32.28730
G1 X200.170 Y185.110 E32.53412
G1 X199.500 Y185.670 E32.68806
G1 X198.060 Y186.620 E32.99219
G1 X196.450 Y187.240 E33.29634
G1 X195.200 Y187.570 E33.52425
G1 X194.210 Y187.770 E33.70231
G1 X193.190 Y187.830 E33.88244
G1 X107.090 Y187.830 E49.06118
G1 X106.070 Y187.770 E49.24131
G1 X105.080 Y187.570 E49.41937
G1 X103.830 Y187.240 E49.64728
G1 X102.510 Y186.770 E49.89430
G1 X101.300 Y186.060 E50.14162
G1 X100.230 Y185.160 E50.38811
G1 X99.320 Y184.240 E50.61624
G1 X98.520 Y183.300 E50.83384
G1 X97.880 Y182.240 E51.05213
G1 X97.250 Y180.990 E51.29890
G1 X96.620 Y179.270 E51.62182
G1 X96.410 Y177.440 E51.94656
G1 X96.410 Y122.840 E61.57210
G1 X96.640 Y120.940 E61.90950
G1 X97.320 Y119.150 E62.24707
G1 X97.770 Y118.300 E62.41662
G1 X98.280 Y117.470 E62.58836
G1 X99.020 Y116.410 E62.81626
G1 X100.072 Y115.211 E63.09747
G1 X101.560 Y114.080 F4800.000 E62.43161
G1 X102.310 Y113.650 F4800.000 E62.12363
G1 X103.510 Y113.090 F4800.000 E61.65187
G1 X104.740 Y112.751 F4800.000 E61.19747
G1 F1800.000 E61.09747
G1 Z0.520 F6000.000
G92 E0
G1 X102.607 Y121.338 F6000.000
G1 Z0.500 F6000.000
G1 E2.00000 F1800.000
G1 X102.782 Y120.915 E2.08072 F900
G1 X103.805 Y119.455 E2.39503
G1 X104.165 Y119.124 E2.48121
G1 X105.298 Y118.470 E2.71178
G1 X105.665 Y118.337 E2.78063
G1 X106.808 Y118.135 E2.98529
G1 X107.003 Y118.118 E3.01965
G1 X193.297 Y118.118 E18.23275
G1 X193.492 Y118.135 E18.26711
G1 X194.635 Y118.337 E18.47176
G1 X195.002 Y118.470 E18.54059
G1 X196.092 Y119.100 E18.76251
G1 X196.391 Y119.351 E18.83136
G1 X197.232 Y120.353 E19.06194
G1 X197.458 Y120.786 E19.14812
G1 X197.894 Y122.414 E19.44514
G1 X197.932 Y122.704 E19.49671
G1 X197.932 Y177.547 E29.16522
G1 X197.915 Y177.742 E29.19958
G1 X197.713 Y178.885 E29.40423
G1 X197.580 Y179.252 E29.47305
G1 X196.950 Y180.342 E29.69497
G1 X196.699 Y180.641 E29.76382
G1 X195.697 Y181.482 E29.99440
G1 X195.264 Y181.708 E30.08059
G1 X193.636 Y182.144 E30.37760
G1 X193.346 Y182.182 E30.42917
G1 X106.954 Y182.182 E45.65948
G1 X106.664 Y182.144 E45.71105
G1 X104.989 Y181.695 E46.01678
G1 X104.480 Y181.401 E46.12038
G1 X103.149 Y180.070 E46.45212
G1 X102.855 Y179.561 E46.55571
G1 X102.740 Y179.133 E46.63398
G1 X102.623 Y178.929 E46.67542
G1 X102.068 Y178.374 E46.81369
G1 X102.068 Y121.926 E56.76517
G1 X102.533 Y121.449 E56.88244
G1 X103.317 Y121.939 F6000.000
G1 X103.444 Y121.696 E56.93089 F900
G1 X103.458 Y121.618 E56.94478
G1 X103.570 Y121.347 E56.99648
G1 X104.480 Y120.047 E57.27633
G1 X104.697 Y119.849 E57.32803
G1 X105.677 Y119.283 E57.52760
G1 X105.897 Y119.202 E57.56891
G1 X107.042 Y119.011 E57.77348
G1 X193.258 Y119.011 E72.97284
G1 X194.403 Y119.202 E73.17739
G1 X194.623 Y119.283 E73.21869
G1 X195.578 Y119.834 E73.41307
G1 X195.757 Y119.984 E73.45438
G1 X196.485 Y120.852 E73.65396
G1 X196.621 Y121.112 E73.70567
G1 X197.016 Y122.588 E73.97513
G1 X197.039 Y122.762 E74.00607
G1 X197.039 Y177.508 E83.65740
G1 X196.848 Y178.653 E83.86196
G1 X196.767 Y178.873 E83.90325
G1 X196.216 Y179.828 E84.09763
G1 X196.066 Y180.007 E84.13894
G1 X195.198 Y180.735 E84.33852
G1 X194.938 Y180.871 E84.39023
G1 X193.462 Y181.266 E84.65969
G1 X193.288 Y181.289 E84.69063
G1 X107.012 Y181.289 E99.90032
G1 X106.838 Y181.266 E99.93126
G1 X105.333 Y180.863 E100.20595
G1 X105.028 Y180.687 E100.26811
G1 X103.863 Y179.522 E100.55841
G1 X103.687 Y179.217 E100.62057
G1 X103.541 Y178.670 E100.72029
G1 X103.423 Y178.467 E100.76172
G1 X102.961 Y178.005 E100.87697
G1 X102.961 Y122.295 E110.69808
G1 X103.222 Y122.034 E110.76323
G1 X104.147 Y122.372 F6000.000
G1 X104.274 Y122.128 E110.81168 F900
G1 X104.320 Y121.869 E110.85795
G1 X104.357 Y121.779 E110.87519
G1 X105.155 Y120.639 E111.12056
G1 X105.228 Y120.573 E111.13779
G1 X106.056 Y120.095 E111.30636
G1 X106.129 Y120.068 E111.32013
G1 X107.081 Y119.904 E111.49036
G1 X193.219 Y119.904 E126.67598
G1 X194.171 Y120.068 E126.84620
G1 X194.244 Y120.095 E126.85996
G1 X195.064 Y120.568 E127.02681
G1 X195.124 Y120.618 E127.04058
G1 X195.738 Y121.351 E127.20915
G1 X195.784 Y121.437 E127.22638
G1 X196.146 Y122.821 E127.47852
G1 X196.146 Y177.469 E137.11266
G1 X195.982 Y178.421 E137.28289
G1 X195.955 Y178.494 E137.29665
G1 X195.482 Y179.314 E137.46349
G1 X195.432 Y179.374 E137.47726
G1 X194.699 Y179.988 E137.64583
G1 X194.613 Y180.034 E137.66307
G1 X193.229 Y180.396 E137.91521
G1 X107.071 Y180.396 E153.10427
G1 X105.678 Y180.031 E153.35815
G1 X105.576 Y179.972 E153.37887
G1 X104.578 Y178.974 E153.62773
G1 X104.519 Y178.872 E153.64845
G1 X104.341 Y178.208 E153.76962
G1 X104.224 Y178.005 E153.81106
G1 X103.854 Y177.635 E153.90329
G1 X103.854 Y122.665 E163.59402
G1 X104.053 Y122.466 E163.64361
G1 X105.020 Y123.350 F6000.000
G1 X105.224 Y122.191 E163.85109 F900
G1 X105.839 Y121.312 E164.04015
G1 X106.419 Y120.978 E164.15813
G1 X107.144 Y120.850 E164.28794
G1 X193.156 Y120.850 E179.45126
G1 X193.881 Y120.978 E179.58106
G1 X194.481 Y121.324 E179.70306
G1 X194.911 Y121.836 E179.82103
G1 X195.200 Y122.916 E180.01802
G1 X195.200 Y177.406 E189.62425
G1 X195.072 Y178.131 E189.75406
G1 X194.726 Y178.731 E189.87605
G1 X194.214 Y179.161 E189.99402
G1 X193.134 Y179.450 E190.19101
G1 X107.166 Y179.450 E205.34655
G1 X106.109 Y179.167 E205.53947
G1 X105.383 Y178.441 E205.72037
G1 X104.984 Y176.950 E205.99253
G1 X104.800 Y176.950 E206.02491
G1 X104.800 Y123.350 E215.47416
G1 X104.886 Y123.350 E215.48926
G1 X105.906 Y123.454 F6000.000
G1 X105.769 Y124.243 F6000.000
G1 X106.069 Y122.541 E215.79391 F900
G1 X106.457 Y121.987 E215.91318
G1 X106.729 Y121.830 E215.96852
G1 X107.222 Y121.743 E216.05682
G1 X193.078 Y121.743 E231.19260
G1 X193.571 Y121.830 E231.28089
G1 X193.898 Y122.018 E231.34738
G1 X194.100 Y122.259 E231.40271
G1 X194.307 Y123.033 E231.54410
G1 X194.307 Y177.328 E241.11584
G1 X194.220 Y177.821 E241.20413
G1 X194.032 Y178.148 E241.27062
G1 X193.791 Y178.350 E241.32595
G1 X193.017 Y178.557 E241.46734
G1 X107.283 Y178.557 E256.58144
G1 X106.571 Y178.366 E256.71146
G1 X106.184 Y177.979 E256.80803
G1 X105.693 Y176.147 E257.14240
G1 X105.693 Y124.301 E266.28250
G1 X106.585 Y124.751 F6000.000
G1 X106.948 Y122.698 E266.65014 F900
G1 X107.300 Y122.635 E266.71323
G1 X193.277 Y122.635 E281.87021
G1 X193.415 Y123.151 E281.96428
G1 X193.415 Y177.526 E291.55028
G1 X192.899 Y177.665 E291.64435
G1 X107.401 Y177.665 E306.71703
G1 X106.994 Y177.556 E306.79122
G1 X106.585 Y176.030 E307.06976
G1 X106.585 Y124.885 E316.08610
G1 X107.530 Y177.027 F6000.000
G1 X107.506 Y177.003 E316.09212 F900
G1 X108.794 Y177.027 E316.31934
G1 X107.223 Y175.456 E316.71133
G1 X107.223 Y174.193 E316.93425
G1 X110.057 Y177.027 E317.64149
G1 X111.321 Y177.027 E317.86441
G1 X107.223 Y172.929 E318.88690
G1 X107.223 Y171.666 E319.10982
G1 X112.584 Y177.027 E320.44757
G1 X113.847 Y177.027 E320.67049
G1 X107.223 Y170.403 E322.32349
G1 X107.223 Y169.139 E322.54641
G1 X115.111 Y177.027 E324.51467
G1 X116.374 Y177.027 E324.73758
G1 X107.223 Y167.876 E327.02110
G1 X107.223 Y166.612 E327.24401
G1 X117.638 Y177.027 E329.84278
G1 X118.901 Y177.027 E330.06570
G1 X107.223 Y165.349 E332.97971
G1 X107.223 Y164.085 E333.20263
G1 X120.165 Y177.027 E336.43190
G1 X121.428 Y177.027 E336.65482
G1 X107.223 Y162.822 E340.19935
G1 X107.223 Y161.558 E340.42226
G1 X122.692 Y177.027 E344.28204
G1 X123.955 Y177.027 E344.50496
G1 X107.223 Y160.295 E348.67999
G1 X107.223 Y159.031 E348.90291
G1 X125.219 Y177.027 E353.39320
G1 X126.482 Y177.027 E353.61612
G1 X107.223 Y157.768 E358.42166
G1 X107.223 Y156.504 E358.64458
G1 X127.746 Y177.027 E363.76537
G1 X129.009 Y177.027 E363.98829
G1 X107.223 Y155.241 E369.42433
G1 X107.223 Y153.977 E369.64725
G1 X130.273 Y177.027 E375.39855
G1 X131.536 Y177.027 E375.62147
G1 X107.223 Y152.714 E381.68803
G1 X107.223 Y151.450 E381.91095
G1 X132.800 Y177.027 E388.29275
G1 X134.063 Y177.027 E388.51567
G1 X107.223 Y150.187 E395.21273
G1 X107.223 Y148.923 E395.43565
G1 X135.327 Y177.027 E402.44797
G1 X136.590 Y177.027 E402.67089
G1 X107.223 Y147.660 E409.99846
G1 X107.223 Y146.396 E410.22137
G1 X137.853 Y177.027 E417.86420
G1 X139.117 Y177.027 E418.08712
G1 X107.223 Y145.133 E426.04519
G1 X107.223 Y143.870 E426.26811
G1 X140.380 Y177.027 E434.54144
G1 X141.644 Y177.027 E434.76436
G1 X107.223 Y142.606 E443.35294
G1 X107.223 Y141.343 E443.57586
G1 X142.907 Y177.027 E452.47970
G1 X144.171 Y177.027 E452.70262
G1 X107.223 Y140.079 E461.92171
G1 X107.223 Y138.816 E462.14463
G1 X145.434 Y177.027 E471.67897
G1 X146.698 Y177.027 E471.90189
G1 X107.223 Y137.552 E481.75149
G1 X107.223 Y136.289 E481.97441
G1 X147.961 Y177.027 E492.13926
G1 X149.225 Y177.027 E492.36218
G1 X107.223 Y135.025 E502.84228
G1 X107.223 Y133.762 E503.06520
G1 X150.488 Y177.027 E513.86056
G1 X151.752 Y177.027 E514.08348
G1 X107.223 Y132.498 E525.19409
G1 X107.223 Y131.235 E525.41701
G1 X153.015 Y177.027 E536.84288
G1 X154.279 Y177.027 E537.06580
G1 X107.223 Y129.971 E548.80692
G1 X107.223 Y128.708 E549.02984
G1 X155.542 Y177.027 E561.08621
G1 X156.806 Y177.027 E561.30913
G1 X107.223 Y127.444 E573.68076
G1 X107.223 Y126.181 E573.90368
G1 X158.069 Y177.027 E586.59056
G1 X159.333 Y177.027 E586.81348
G1 X107.223 Y124.917 E599.81561
G1 X107.395 Y123.827 E600.01044
G1 X160.596 Y177.027 E613.28470
G1 X161.859 Y177.027 E613.50762
G1 X108.105 Y123.273 E626.92017
G1 X109.368 Y123.273 E627.14309
G1 X163.123 Y177.027 E640.55564
G1 X164.386 Y177.027 E640.77855
G1 X110.632 Y123.273 E654.19110
G1 X111.895 Y123.273 E654.41402
G1 X165.650 Y177.027 E667.82657
G1 X166.913 Y177.027 E668.04949
G1 X113.159 Y123.273 E681.46204
G1 X114.422 Y123.273 E681.68496
G1 X168.177 Y177.027 E695.09751
G1 X169.440 Y177.027 E695.32043
G1 X115.686 Y123.273 E708.73298
G1 X116.949 Y123.273 E708.95589
G1 X170.704 Y177.027 E722.36844
G1 X171.967 Y177.027 E722.59136
G1 X118.212 Y123.273 E736.00391
G1 X119.476 Y123.273 E736.22683
G1 X173.231 Y177.027 E749.63938
G1 X174.494 Y177.027 E749.86230
G1 X120.739 Y123.273 E763.27485
G1 X122.003 Y123.273 E763.49777
G1 X175.758 Y177.027 E776.91032
G1 X177.021 Y177.027 E777.13323
G1 X123.266 Y123.273 E790.54578
G1 X124.530 Y123.273 E790.76870
G1 X178.285 Y177.027 E804.18125
G1 X179.548 Y177.027 E804.40417
G1 X125.793 Y123.273 E817.81672
G1 X127.057 Y123.273 E818.03964
G1 X180.812 Y177.027 E831.45219
G1 X182.075 Y177.027 E831.67510
G1 X128.320 Y123.273 E845.08765
G1 X129.584 Y123.273 E845.31057
G1 X183.339 Y177.027 E858.72312
G1 X184.602 Y177.027 E858.94604
G1 X130.847 Y123.273 E872.35859
G1 X132.111 Y123.273 E872.58151
G1 X185.866 Y177.027 E885.99406
G1 X187.129 Y177.027 E886.21698
G1 X133.374 Y123.273 E899.62953
G1 X134.638 Y123.273 E899.85244
G1 X188.392 Y177.027 E913.26499
G1 X189.656 Y177.027 E913.48791
G1 X135.901 Y123.273 E926.90046
G1 X137.165 Y123.273 E927.12338
G1 X190.919 Y177.027 E940.53593
G1 X192.183 Y177.027 E940.75885
G1 X138.428 Y123.273 E954.17140
G1 X139.692 Y123.273 E954.39432
G1 X192.777 Y176.358 E967.63996
G1 X192.777 Y175.095 E967.86288
G1 X140.955 Y123.273 E980.79326
G1 X142.218 Y123.273 E981.01618
G1 X192.777 Y173.832 E993.63132
G1 X192.777 Y172.568 E993.85423
G1 X143.482 Y123.273 E1006.15411
G1 X144.745 Y123.273 E1006.37703
G1 X192.777 Y171.305 E1018.36166
G1 X192.777 Y170.041 E1018.58458
G1 X146.009 Y123.273 E1030.25395
G1 X147.272 Y123.273 E1030.47687
G1 X192.777 Y168.778 E1041.83099
G1 X192.777 Y167.514 E1042.05390
G1 X148.536 Y123.273 E1053.09277
G1 X149.799 Y123.273 E1053.31569
G1 X192.777 Y166.251 E1064.03930
G1 X192.777 Y164.987 E1064.26222
G1 X151.063 Y123.273 E1074.67058
G1 X152.326 Y123.273 E1074.89349
G1 X192.777 Y163.724 E1084.98660
G1 X192.777 Y162.460 E1085.20952
G1 X153.590 Y123.273 E1094.98737
G1 X154.853 Y123.273 E1095.21029
G1 X192.777 Y161.197 E1104.67288
G1 X192.777 Y159.933 E1104.89580
G1 X156.117 Y123.273 E1114.04315
G1 X157.380 Y123.273 E1114.26606
G1 X192.777 Y158.670 E1123.09815
G1 X192.777 Y157.406 E1123.32107
G1 X158.644 Y123.273 E1131.83791
G1 X159.907 Y123.273 E1132.06083
G1 X192.777 Y156.143 E1140.26241
G1 X192.777 Y154.879 E1140.48533
G1 X161.171 Y123.273 E1148.37166
G1 X162.434 Y123.273 E1148.59457
G1 X192.777 Y153.616 E1156.16565
G1 X192.777 Y152.352 E1156.38857
G1 X163.698 Y123.273 E1163.64439
G1 X164.961 Y123.273 E1163.86731
G1 X192.777 Y151.089 E1170.80787
G1 X192.777 Y149.826 E1171.03079
G1 X166.224 Y123.273 E1177.65611
G1 X167.488 Y123.273 E1177.87903
G1 X192.777 Y148.562 E1184.18909
G1 X192.777 Y147.299 E1184.41200
G1 X168.751 Y123.273 E1190.40681
G1 X170.015 Y123.273 E1190.62973
G1 X192.777 Y146.035 E1196.30928
G1 X192.777 Y144.772 E1196.53220
G1 X171.278 Y123.273 E1201.89650
G1 X172.542 Y123.273 E1202.11942
G1 X192.777 Y143.508 E1207.16846
G1 X192.777 Y142.245 E1207.39138
G1 X173.805 Y123.273 E1212.12517
G1 X175.069 Y123.273 E1212.34809
G1 X192.777 Y140.981 E1216.76663
G1 X192.777 Y139.718 E1216.98955
G1 X176.332 Y123.273 E1221.09283
G1 X177.596 Y123.273 E1221.31575
G1 X192.777 Y138.454 E1225.10378
G1 X192.777 Y137.191 E1225.32670
G1 X178.859 Y123.273 E1228.79948
G1 X180.123 Y123.273 E1229.02240
G1 X192.777 Y135.927 E1232.17992
G1 X192.777 Y134.664 E1232.40284
G1 X181.386 Y123.273 E1235.24511
G1 X182.650 Y123.273 E1235.46803
G1 X192.777 Y133.400 E1237.99504
G1 X192.777 Y132.137 E1238.21796
G1 X183.913 Y123.273 E1240.42972
G1 X185.177 Y123.273 E1240.65264
G1 X192.777 Y130.873 E1242.54915
G1 X192.777 Y129.610 E1242.77207
G1 X186.440 Y123.273 E1244.35332
G1 X187.704 Y123.273 E1244.57624
G1 X192.777 Y128.346 E1245.84224
G1 X192.777 Y127.083 E1246.06516
G1 X188.967 Y123.273 E1247.01591
G1 X190.230 Y123.273 E1247.23883
G1 X192.777 Y125.820 E1247.87432
G1 X192.777 Y124.556 E1248.09724
G1 X191.494 Y123.273 E1248.41748
G1 X192.757 Y123.273 E1248.64040
G1 X192.777 Y123.293 E1248.64539
G1 X192.757 Y123.273 F4800.000 E1248.63532
G1 X191.494 Y123.273 F4800.000 E1248.18520
G1 X192.777 Y124.556 F4800.000 E1247.53858
